X:8537
T:Kilavel Jig, The
R:jig
N:Transcribed by Alan Ng
S:Madison, Wisconsin sessions
Z: id:ng-jigs-14 Transcribed by Alan Ng agng@students.wisc.edu February 19, 1997
E:16
M:6/8
L:1/8
K:EDor
BEE BEE|d2f edB|BAF FEF|DFA BAF|BEE BEE|*
E:14
d2f edB|BAF dAF|FED E3::Bef gfe|fgf edB|BAF FEF|*
E:16
DFA BAF|Bef gfe|fgf edB|BAF dAF|FED E3:|**
"Optional last four bars, especially the last time through the tune"BEE BEE|\
d2f edB|BAF dAF|FED E3|]
